lib/assets/icons/svg/outlined-product-brandsproduct.svg

<svg xmlns="http://www.w3.org/2000/svg" viewBox="0 0 24 24"><path d="M16.982 21.49a.5.5 0 0 1 0-1h2.3a.2.2 0 0 0 .11-.21v-4.11-.01h-1.86a.5.5 0 0 1 0-1h1.7v-2.01a.297.297 0 0 0-.036-.158.487.487 0 0 1-.134.018h-1.53a.5.5 0 0 1 0-1h1.42v-1.54a.26.26 0 0 0-.1-.24l-1.27.84a.5.5 0 0 1-.56-.83l1.26-.85a.837.837 0 0 1 .59-.15.91.91 0 0 1 .59.19c.324.25.507.641.49 1.05v1.85c.19.234.289.529.28.83v2.36c.108.199.163.423.16.65v4.07a1.17 1.17 0 0 1-1.06 1.24zm-7.53 0a1 1 0 0 1-.94-1.14v-8.92a9.888 9.888 0 0 1 .83-4.15 5.285 5.285 0 0 0 .12-1.75.509.509 0 0 1 .12-.39.522.522 0 0 1 .31-.13v-1.5h-1.38a.5.5 0 0 1 0-1h1.858a.353.353 0 0 1 .046 0h3.754a.353.353 0 0 1 .046 0h.606a.5.5 0 0 1 0 1h-.13v1.505c.114.016.22.07.3.155a.522.522 0 0 1 .13.39 5.394 5.394 0 0 0 .14 1.83 9.905 9.905 0 0 1 .8 4.05v8.94a1 1 0 0 1-.91 1.11zm1.03-15.48a6.018 6.018 0 0 1-.2 1.63 9.178 9.178 0 0 0-.77 3.81v9a.411.411 0 0 0 0 .14h5.56V11.5a9.105 9.105 0 0 0-.75-3.75 6.446 6.446 0 0 1-.26-1.74zm-4.65 15.48a1.42 1.42 0 0 1-1.31-1.48v-1a1.793 1.793 0 0 1-.22-.85l-.18-5.42a2.34 2.34 0 0 0-.06-.5l-.39-1.73a1.223 1.223 0 0 1-.011-.242.49.49 0 0 1-.022-.25 1.544 1.544 0 0 1-.027-.288V8.46a1.22 1.22 0 0 1 1-1.33h2.45a.5.5 0 0 1 0 1h-2.42a.292.292 0 0 0-.08.24V9.6h2.38a.5.5 0 0 1 .5.5.51.51 0 0 1-.5.5H4.659l.403 1.41c.046.234.073.472.08.71l.18 5.44c0 .079.013.156.037.23h1.393a.5.5 0 0 1 0 1h-1.21v.62a.43.43 0 0 0 .37.49h1.15a.5.5 0 0 1 .44-.55.47.47 0 0 1 .53.44 1 1 0 0 1-.92 1.1zm5.06-16.48h2.8v-1.5h-2.8z"/></svg>

<svg viewBox="0 0 24 24" xmlns="http://www.w3.org/2000/svg">
  <path  d="M 16.982 21.49 C 16.706 21.49 16.482 21.266 16.482 20.99 C 16.482 20.714 16.706 20.49 16.982 20.49 L 19.282 20.49 C 19.361 20.452 19.405 20.367 19.392 20.28 L 19.392 16.17 C 19.392 16.167 19.392 16.163 19.392 16.16 L 17.532 16.16 C 17.256 16.16 17.032 15.936 17.032 15.66 C 17.032 15.384 17.256 15.16 17.532 15.16 L 19.232 15.16 L 19.232 13.15 C 19.235 13.094 19.222 13.04 19.196 12.992 C 19.154 13.004 19.109 13.01 19.062 13.01 L 17.532 13.01 C 17.256 13.01 17.032 12.786 17.032 12.51 C 17.032 12.234 17.256 12.01 17.532 12.01 L 18.952 12.01 L 18.952 10.47 C 18.964 10.378 18.926 10.286 18.852 10.23 L 17.582 11.07 C 17.263 11.286 16.83 11.074 16.803 10.69 C 16.79 10.512 16.874 10.34 17.022 10.24 L 18.282 9.39 C 18.453 9.268 18.663 9.214 18.872 9.24 C 19.085 9.232 19.294 9.3 19.462 9.43 C 19.786 9.68 19.969 10.071 19.952 10.48 L 19.952 12.33 C 20.142 12.564 20.241 12.859 20.232 13.16 L 20.232 15.52 C 20.34 15.719 20.395 15.943 20.392 16.17 L 20.392 20.24 C 20.433 20.872 19.963 21.422 19.332 21.48 Z M 9.452 21.49 C 8.864 21.461 8.429 20.933 8.512 20.35 L 8.512 11.43 C 8.486 10.003 8.769 8.587 9.342 7.28 C 9.479 6.707 9.52 6.116 9.462 5.53 C 9.446 5.389 9.489 5.248 9.582 5.14 C 9.669 5.063 9.778 5.018 9.892 5.01 L 9.892 3.51 L 8.512 3.51 C 8.127 3.51 7.887 3.093 8.079 2.76 C 8.168 2.605 8.333 2.51 8.512 2.51 L 10.37 2.51 C 10.385 2.509 10.401 2.509 10.416 2.51 L 14.17 2.51 C 14.185 2.509 14.201 2.509 14.216 2.51 L 14.822 2.51 C 15.207 2.51 15.447 2.927 15.255 3.26 C 15.166 3.415 15.001 3.51 14.822 3.51 L 14.692 3.51 L 14.692 5.015 C 14.806 5.031 14.912 5.085 14.992 5.17 C 15.087 5.277 15.134 5.418 15.122 5.56 C 15.064 6.174 15.111 6.793 15.262 7.39 C 15.81 8.669 16.083 10.049 16.062 11.44 L 16.062 20.38 C 16.126 20.94 15.714 21.443 15.152 21.49 Z M 10.482 6.01 C 10.49 6.56 10.423 7.108 10.282 7.64 C 9.756 8.84 9.494 10.14 9.512 11.45 L 9.512 20.45 C 9.504 20.496 9.504 20.544 9.512 20.59 L 15.072 20.59 L 15.072 11.5 C 15.09 10.211 14.835 8.933 14.322 7.75 C 14.156 7.185 14.069 6.599 14.062 6.01 Z M 5.832 21.49 C 5.067 21.431 4.487 20.776 4.522 20.01 L 4.522 19.01 C 4.379 18.749 4.304 18.457 4.302 18.16 L 4.122 12.74 C 4.12 12.572 4.1 12.404 4.062 12.24 L 3.672 10.51 C 3.66 10.43 3.657 10.349 3.661 10.268 C 3.642 10.216 3.632 10.159 3.632 10.1 C 3.632 10.072 3.634 10.045 3.639 10.018 C 3.621 9.923 3.612 9.827 3.612 9.73 L 3.612 8.46 C 3.544 7.823 3.981 7.242 4.612 7.13 L 7.062 7.13 C 7.338 7.13 7.562 7.354 7.562 7.63 C 7.562 7.906 7.338 8.13 7.062 8.13 L 4.642 8.13 C 4.58 8.194 4.551 8.282 4.562 8.37 L 4.562 9.6 L 6.942 9.6 C 7.218 9.6 7.442 9.824 7.442 10.1 C 7.437 10.374 7.216 10.595 6.942 10.6 L 4.659 10.6 L 5.062 12.01 C 5.108 12.244 5.135 12.482 5.142 12.72 L 5.322 18.16 C 5.322 18.239 5.335 18.316 5.359 18.39 L 6.752 18.39 C 7.137 18.39 7.377 18.807 7.185 19.14 C 7.096 19.295 6.931 19.39 6.752 19.39 L 5.542 19.39 L 5.542 20.01 C 5.506 20.248 5.673 20.469 5.912 20.5 L 7.062 20.5 C 7.033 20.227 7.229 19.981 7.502 19.95 C 7.773 19.915 8.017 20.117 8.032 20.39 C 8.09 20.95 7.674 21.448 7.112 21.49 Z M 10.892 5.01 L 13.692 5.01 L 13.692 3.51 L 10.892 3.51 Z"/>
</svg>
